!!!OTL: MIT BLANKEN GESCHOSSEN AUF MUTIGEN ROSSEN
!!!ARE: Europa, Mitteleuropa, Deutschland
!!!SCT: F0631
!!!YEM: Copyright 1995, estate of Helmut Schaffrath.
**kern
*ICvox
*Ivox
*M2/4
*k[b-e-]
*B-:
{8ff
=1
4ff
8ee-
8ee-
=2
4dd
8b-}
{8dd
=3
4ee-
8dd
8dd
=4
4cc
8cc}
{8cc
=5
8dd
8ee-
8dd}
{8ee-
=6
4ff
8dd
8dd
=7
4ee-
8dd
8dd
=8
4cc
8r}
{8dd
=9
8cc
8dd
8cc
8dd
=10
4ee-
8cc}
{8cc
=11
8dd
8ee-
8dd
8ee-
=12
4ff
8dd}
{8dd
=13
4gg
8gg
8gg
=14
4ff
8dd}
{8dd
=15
4ee-
8cc
8cc
=16
4dd
8r}
{8b-
=17
4gg
8ee-
8gg
=18
4ff
8dd}
{8ff
=19
4ee-
8cc
8a
=20
4b-
8r}
==
!!!AGN: Soldaten -, Jaeger - Lied
!!!ONB: ESAC (Essen Associative Code) Database: FINK
!!!AMT: simple duple
!!!AIN: vox
!!!EED: Helmut Schaffrath
!!!EEV: 1.0
*-
